images/smartphone.svg

<svg width="10" height="15" viewBox="0 0 10 15" fill="none" xmlns="http://www.w3.org/2000/svg">
<path d="M8.5 0H1.5C0.672848 0 0 0.60854 0 1.35663V13.1141C0 13.8622 0.672848 14.4708 1.5 14.4708H8.5C9.32715 14.4708 10 13.8622 10 13.1141V1.35663C10 0.60854 9.32715 0 8.5 0ZM1.5 0.904423H8.5C8.77588 0.904423 9 1.10712 9 1.35663V10.8531H1V1.35663C1 1.10712 1.22412 0.904423 1.5 0.904423ZM8.5 13.5663H1.5C1.22412 13.5663 1 13.3636 1 13.1141V11.7575H9V13.1141C9 13.3636 8.77588 13.5663 8.5 13.5663Z" fill="#757575"/>
<path d="M2.35355 12.3422C2.54882 12.5188 2.54882 12.8051 2.35355 12.9817C2.15828 13.1583 1.84172 13.1583 1.64645 12.9817C1.45118 12.8051 1.45118 12.5188 1.64645 12.3422C1.84172 12.1656 2.15828 12.1656 2.35355 12.3422Z" fill="#757575"/>
</svg>

<svg width="10" height="15" fill="none" xmlns="http://www.w3.org/2000/svg"><path d="M8.5 0h-7C.673 0 0 .609 0 1.357v11.757c0 .748.673 1.357 1.5 1.357h7c.827 0 1.5-.609 1.5-1.357V1.357C10 .609 9.327 0 8.5 0zm-7 .904h7c.276 0 .5.203.5.453v9.496H1V1.357c0-.25.224-.453.5-.453zm7 12.662h-7c-.276 0-.5-.202-.5-.452v-1.357h8v1.357c0 .25-.224.452-.5.452z" fill="#757575"/><path d="M2.354 12.342a.422.422 0 010 .64.538.538 0 01-.708 0 .422.422 0 010-.64.538.538 0 01.708 0z" fill="#757575"/></svg>
